X: 04005
T: APRIL'S MARCH
C: Bob McQuillen 4 July 79
B: Bob's Note Book 04 #5
%R: march
Z: 2020 John Chambers <jc:trillian.mit.edu>
M: C
L: 1/8
K: D
F2G2 \
| A3BA2F2 | D2F2A2d2 | f2d2B2d2 | f2fgf2d2 | e3cA2c2 | e2ef e2fg | f3ed2B2 | A2G2F2G2 |
| A3BA2F2 | D2F2A2d2 | f2d2B2d2 | f2fgf2d2 | e3cA2c2 | e2fgf2e2 | e2d2d3c | d4 ||
|| f2g2 \
| a3fa2f2 | d2A2d2f2 | a3fd2f2 | A3BA2G2 | F2A2d2f2 | a3ba2f2 | g2ab a2f2 | f2e2f2g2 |
| a3fa2f2 | d2A2d2f2 | a3fd2f2 | A2fed2c2 | B3cd2b2 | a2f2e2f2 | d4d3d | d4 |]
%%begintext align
%% I have a wonderful time playing
%% music with a great fiddler
%% named April Limber, so
%% this is her tune, with love.
%%endtext

%%sep 1 1 500

%%sep 1 1 500

